htaccess/icons/doc.svg

<svg height="100" viewBox="0 0 100 100" width="100" xmlns="http://www.w3.org/2000/svg"><path d="m67.75 0h-49.917c-2.761 0-5 2.239-5 5v90c0 2.761 2.239 5 5 5h65.333c2.761 0 5-2.239 5-5v-74.583z" fill="#61d1f2"/><g fill="#fff"><path d="m67.75 15.417c0 2.761 2.239 5 5 5h15.417l-20.417-20.417z" opacity=".3"/><path d="m55.878 29.274h22.546v4.629h-22.546zm-33.303 57.619h22.546v-4.575h-22.546zm0-42.642h55.767v-4.629h-55.767c0-.001 0 4.629 0 4.629zm.083 10.565h55.767v-4.629h-55.767zm-.083 11.327h55.767v-4.629h-55.767zm.083 10.729h55.767v-4.793h-55.767z"/></g></svg>

<svg version="1.1" xmlns="http://www.w3.org/2000/svg" xmlns:xlink="http://www.w3.org/1999/xlink" width="100px" height="100px" viewBox="0 0 100 100" xml:space="preserve">
<path fill="#61D1F2" d="M67.75,0H17.833c-2.761,0-5,2.239-5,5v90c0,2.761,2.239,5,5,5h65.333c2.761,0,5-2.239,5-5V20.417L67.75,0z"
	/>
<path opacity="0.3" fill="#FFFFFF" d="M67.75,15.417c0,2.761,2.239,5,5,5h15.417L67.75,0V15.417z"/>
<path fill="#FFFFFF" d="M55.878,29.274h22.546v4.629H55.878V29.274z M22.575,86.893h22.546v-4.575H22.575V86.893z M22.575,44.251
	h55.767v-4.629H22.575C22.575,39.621,22.575,44.251,22.575,44.251z M22.658,54.816h55.767v-4.629H22.658V54.816z M22.575,66.143
	h55.767v-4.629H22.575C22.575,61.514,22.575,66.143,22.575,66.143z M22.658,76.872h55.767v-4.793H22.658V76.872z"/>
</svg>
